X:1642
T:Dream,The. WM063
T:Devil's Dream. WM063
T:Devil Among The Tailors. WM063
O:england
M:2/4
L:1/8
Q:300
S:Wm.Mittell,1799
R:Reel
A:Kent
N:Interestingly described as a hornpipe in MS, usually thought of as a
N:reel.
N:Obviously of a type unfamiliar to Mittell, hence all the bar lines.
N:Looking at the repetitive code in ABC Notation emphasises how radically
N:different this tune was (and still is) to the rest of the
N:repertoire.Did he approve
K:G
dgfg|dgfg|dgfg|edcB|ceAe|ceAe|ceAe|edcB|
dgfg|dgfg|dgfg|edcB|cdef|gdBG|D2F2|G2:|
|:BdGd|BdGd|BdGd|edcB|ceAe|ceAe|ceAe|edcB|
BdGd|BdGd|BdGd|cBAG|efge|dBAG|D2F2|G2:|]


